src/public/front_end/Images/ic_checkmark_16x16.svg

<svg width="16" height="16" viewBox="0 0 16 16" fill="none" xmlns="http://www.w3.org/2000/svg">
<path d="M8 0.5C3.86 0.5 0.5 3.86 0.5 8C0.5 12.14 3.86 15.5 8 15.5C12.14 15.5 15.5 12.14 15.5 8C15.5 3.86 12.14 0.5 8 0.5ZM8 14C4.6925 14 2 11.3075 2 8C2 4.6925 4.6925 2 8 2C11.3075 2 14 4.6925 14 8C14 11.3075 11.3075 14 8 14ZM6.5 9.65L4.55 7.7L3.5 8.75L6.5 11.75L12.5 5.75L11.45 4.7L6.5 9.65Z" fill="black"/>
</svg>

<svg width="16" height="16" fill="none" xmlns="http://www.w3.org/2000/svg"><path d="M8 .5C3.86.5.5 3.86.5 8c0 4.14 3.36 7.5 7.5 7.5 4.14 0 7.5-3.36 7.5-7.5C15.5 3.86 12.14.5 8 .5zM8 14c-3.308 0-6-2.693-6-6 0-3.308 2.692-6 6-6 3.307 0 6 2.692 6 6 0 3.307-2.693 6-6 6zM6.5 9.65 4.55 7.7 3.5 8.75l3 3 6-6-1.05-1.05L6.5 9.65z" fill="#000"/></svg>
